dist/imgs/setting-dark-icon.svg

<svg width="13" height="13" viewBox="0 0 13 13" fill="none" xmlns="http://www.w3.org/2000/svg">
<path d="M6.49973 4.62512C6.12889 4.62512 5.76637 4.73509 5.45803 4.94112C5.14969 5.14714 4.90937 5.43998 4.76745 5.78259C4.62554 6.1252 4.58841 6.5022 4.66075 6.86591C4.7331 7.22963 4.91168 7.56372 5.1739 7.82595C5.43612 8.08817 5.77022 8.26675 6.13393 8.33909C6.49765 8.41144 6.87465 8.37431 7.21726 8.23239C7.55987 8.09048 7.8527 7.85016 8.05873 7.54181C8.26476 7.23347 8.37472 6.87096 8.37472 6.50012C8.37324 6.0033 8.17522 5.52724 7.82391 5.17593C7.4726 4.82463 6.99655 4.6266 6.49973 4.62512ZM10.5478 6.50012C10.5469 6.67532 10.534 6.85025 10.5094 7.02371L11.6506 7.91715C11.7003 7.95819 11.7338 8.01557 11.7451 8.07903C11.7564 8.14248 11.7447 8.20789 11.7122 8.26356L10.6327 10.1273C10.5999 10.1825 10.5487 10.2243 10.488 10.2454C10.4274 10.2666 10.3613 10.2657 10.3013 10.2429L8.95949 9.70379C8.68009 9.91894 8.37433 10.0975 8.04965 10.2351L7.84902 11.6596C7.83779 11.7235 7.80475 11.7814 7.75555 11.8235C7.70635 11.8657 7.64403 11.8894 7.57926 11.8907H5.4202C5.3566 11.8895 5.2953 11.8667 5.2463 11.8262C5.19731 11.7856 5.16351 11.7296 5.15043 11.6674L4.9498 10.2429C4.62423 10.1068 4.31825 9.92799 4.03996 9.71106L2.69817 10.2501C2.63819 10.2729 2.57208 10.2739 2.51146 10.2528C2.45085 10.2317 2.39961 10.1899 2.36676 10.1348L1.28723 8.27129C1.25473 8.21563 1.24309 8.15022 1.25438 8.08676C1.26568 8.0233 1.29917 7.96593 1.34887 7.92489L2.49004 7.03145C2.4657 6.85536 2.45286 6.67788 2.4516 6.50012C2.45258 6.32492 2.46542 6.14999 2.49004 5.97653L1.34887 5.08309C1.29917 5.04205 1.26568 4.98467 1.25438 4.92121C1.24309 4.85776 1.25473 4.79235 1.28723 4.73668L2.36676 2.87293C2.39958 2.81776 2.4508 2.77593 2.51141 2.75479C2.57203 2.73366 2.63816 2.73458 2.69817 2.75739L4.03996 3.29645C4.31936 3.0813 4.62512 2.90274 4.9498 2.76512L5.15043 1.34059C5.16166 1.27678 5.1947 1.21885 5.2439 1.1767C5.2931 1.13455 5.35542 1.1108 5.4202 1.1095H7.57926C7.64285 1.11073 7.70415 1.1335 7.75315 1.17406C7.80214 1.21463 7.83594 1.27061 7.84902 1.33286L8.04965 2.75739C8.37563 2.89332 8.68201 3.07216 8.96066 3.28918L10.3013 2.75012C10.3613 2.72729 10.4274 2.72634 10.488 2.74743C10.5486 2.76852 10.5998 2.8103 10.6327 2.86543L11.7122 4.72918C11.7447 4.78485 11.7564 4.85026 11.7451 4.91372C11.7338 4.97717 11.7003 5.03455 11.6506 5.07559L10.5094 5.96903C10.5337 6.14504 10.5466 6.32244 10.5478 6.50012Z" fill="#718096"/>
</svg>

<svg width="13" height="13" fill="none" xmlns="http://www.w3.org/2000/svg"><path d="M6.5 4.625a1.875 1.875 0 100 3.75 1.875 1.875 0 000-3.75zM10.548 6.5c-.001.175-.014.35-.039.524l1.142.893a.272.272 0 01.061.347l-1.08 1.863a.272.272 0 01-.33.116l-1.343-.54a4.069 4.069 0 01-.91.532l-.2 1.425a.28.28 0 01-.27.23H5.42a.281.281 0 01-.27-.223l-.2-1.424a3.971 3.971 0 01-.91-.532l-1.342.54a.273.273 0 01-.331-.116L1.287 8.27a.272.272 0 01.062-.346L2.49 7.03a4.092 4.092 0 01-.038-.53 3.88 3.88 0 01.038-.524l-1.141-.894a.272.272 0 01-.062-.346l1.08-1.864a.273.273 0 01.331-.116l1.342.54a4.13 4.13 0 01.91-.532l.2-1.424a.28.28 0 01.27-.232h2.16a.281.281 0 01.269.224l.2 1.424c.327.136.633.315.912.532l1.34-.539a.273.273 0 01.332.115l1.08 1.864a.272.272 0 01-.062.347l-1.142.893c.025.176.038.353.039.531z" fill="#718096"/></svg>
